X:1
T:Title
%%score { ( 1 3 ) | ( 2 4 ) }
L:1/8
Q:1/4=100
M:4/4
K:F
V:1 treble nm="Grand Piano"
V:3 treble 
V:2 bass 
V:4 bass 
V:1
 A2 A>_A =A2 GF | E [EB]2 [_EA] [=EB]4 | [EB]2 [EB]>[_EA] [=EB]2 [EA][EG] | z c c>=B c4 | %4
w: C.~Austin~Miles * * * * *||||
 c2 c>=B c2 _BA | Gd d>^c d4 | G2 =Bc de d2 | [CEc]6 z2 | [CAc]2 FG A2 A[GB] | %9
w: |||||
 [Ac][GB][GB][^FA] [GB]4 | [Bd]2 G>A B2 [ce][Bd] | [Bd][Ac][Ac][_A=B] [=Ac]4 | %12
w: |||
 [CFA]2 [CFA][CFA] [^CEGA]2 [CEGA][GA] | [DFA] [DFA]2 [C_EFA] [DFBd]4 | [Fc]2 FG A2 [A,F][B,FG] | %15
w: |||
 [CFA][A,F] [B,EG]2 [A,F]4 |] %16
w: |
V:2
 [F,CF]2 [F,CF]>[F,=B,F] [F,CF]2 [F,_B,C][F,A,C] | [C,G,C] [C,G,]2 [C,^F,] [C,G,]4 | %2
 [C,G,]2 [C,G,]>[C,^F,] [C,G,]2 [C,C][C,B,] | [F,A,]2[K:treble] [F,A,F]>[F,_A,F] [F,=A,F]4 | %4
 [F,A,F]2 [F,A,F]>[F,_A,F] [F,=A,G]2 [F,DF][F,CF] | [G,B,D]2 [G,B,G]>[G,B,G] [G,B,G]4 | %6
 [G,=B,]2 [G,DF][G,CE] [G,B,F][A,CG] [G,B,F]2 | C,6 z2 | F,2 A,B, C2 [F,CF][F,C] | %9
 [C,C]2 [C,C][C,C] [C,C]4 | [C,C]2 E,>F, G,2 [C,C][C,C] | [F,C]2 [F,C][F,D] [F,C]4 | %12
 [F,,F,]2 [F,,F,]2 [E,,E,]2 z [^CE] | [D,,D,] [D,,D,]2 [C,,C,] [B,,,B,,]4 | [C,A,]2 A,B, C2 C,C, | %15
 C,C, C,2 F,4 |] %16
V:3
 x8 | x8 | x8 | F2 z2 z4 | x8 | x8 | x8 | x8 | x8 | x8 | x8 | x8 | x8 | x8 | x8 | x8 |] %16
V:4
 x8 | x8 | x8 | x2[K:treble] x6 | x8 | x8 | x8 | x8 | x8 | x8 | x8 | x8 | z4 z2 [E,,E,]2 | x8 | %14
 x8 | x8 |] %16

